X: 34714
T: Road To Glin, The
R: reel
M: 4/4
K: Edorian
B2 Ad BE E2|B2 Ad Bded|B2 Ad BE E2|FDAG FDFA|
B2 Ad BE E2|B2 Ad Bded|(3gfe dB BABc|dBAF BE E2||
e2 Be ge B2|e^def gfec|d2 Ad fd d2|BABc dAFA|
e2 Be ge B2|e^def gfga|bgaf gfed|(3Bcd eg fe e2||

